svgs/paypal.svg

<svg width="192" height="192" viewBox="0 0 192 192" fill="none" xmlns="http://www.w3.org/2000/svg"><path d="m34.362 134.825-5.935-.881 5.935.881Zm15.955-107.47 5.935.882-5.935-.881ZM69 92v-6a6 6 0 0 0-5.93 5.088L69 92Zm-10.498 68.825 5.935.881-5.935-.881Zm27.542 2.391-5.93-.912 5.93.912ZM93 118v-6a6 6 0 0 0-5.93 5.088L93 118ZM56.527 28H100V16H56.527v12Zm-16.23 107.706L56.252 28.237l-11.87-1.762-15.955 107.469 11.87 1.762ZM42.272 150H61v-12H42.272v12ZM69 98h31V86H69v12Zm-2.07 46.912 8-52-11.86-1.824-8 52 11.86 1.824Zm-2.493 16.794 2.498-16.825-11.87-1.762-2.498 16.825 11.87 1.762ZM66.415 176h11.722v-12H66.415v12Zm25.559-11.871 6.956-45.217-11.86-1.824-6.957 45.216 11.86 1.825ZM93 124h31v-12H93v12Zm31 0c22.644 0 41-18.356 41-41h-12c0 16.016-12.984 29-29 29v12Zm41-41c0-18.498-12.245-34.12-29.058-39.232l-3.491 11.481C144.351 58.867 153 69.931 153 83h12Zm-86.863 93a14 14 0 0 0 13.837-11.871l-11.86-1.825A2 2 0 0 1 78.136 164v12Zm-49.71-42.056C27.172 142.399 33.718 150 42.272 150v-12a1.998 1.998 0 0 1-1.975-2.294l-11.87-1.762Zm24.14 26C51.312 168.402 57.865 176 66.415 176v-12a2 2 0 0 1-1.978-2.294l-11.87-1.762ZM100 28c13.878 0 25.492 9.755 28.334 22.787l11.725-2.557C136.04 29.802 119.639 16 100 16v12Zm28.334 22.787c.435 1.996.666 4.074.666 6.213h12c0-3.004-.324-5.939-.941-8.77l-11.725 2.557ZM100 98c22.644 0 41-18.356 41-41h-12c0 16.016-12.984 29-29 29v12ZM56.527 16a12.278 12.278 0 0 0-12.145 10.475l11.87 1.762a.278.278 0 0 1 .275-.237V16Z" fill="#000"/></svg>

<svg id="vector" xmlns="http://www.w3.org/2000/svg" width="192" height="192" viewBox="0 0 192 192"><path fill="#000000" d="M34.362,134.825L28.427,133.944L34.362,134.825ZM50.317,27.356L56.252,28.237V28.237L50.317,27.356ZM69,92V86C66.039,86 63.52,88.161 63.07,91.088L69,92ZM58.502,160.825L64.437,161.706L58.502,160.825ZM86.044,163.216L80.113,162.304L86.044,163.216ZM93,118V112C90.039,112 87.52,114.161 87.07,117.088L93,118ZM56.527,28H100V16H56.527V28ZM40.297,135.706L56.252,28.237L44.382,26.475L28.427,133.944L40.297,135.706ZM42.272,150H61V138H42.272V150ZM69,98H100V86H69V98ZM66.93,144.912L74.93,92.912L63.07,91.088L55.07,143.088L66.93,144.912ZM64.437,161.706L66.935,144.881L55.065,143.119L52.567,159.944L64.437,161.706ZM66.415,176H78.137V164H66.415V176ZM91.974,164.129L98.93,118.912L87.07,117.088L80.113,162.304L91.974,164.129ZM93,124H124V112H93V124ZM124,124C146.644,124 165,105.644 165,83H153C153,99.016 140.016,112 124,112V124ZM165,83C165,64.502 152.755,48.88 135.942,43.768L132.451,55.249C144.351,58.867 153,69.931 153,83H165ZM78.137,176C85.047,176 90.923,170.958 91.974,164.129L80.113,162.304C79.963,163.28 79.124,164 78.137,164V176ZM28.427,133.944C27.172,142.399 33.718,150 42.272,150V138C41.054,138 40.117,136.918 40.297,135.706L28.427,133.944ZM52.567,159.944C51.312,168.402 57.865,176 66.415,176V164C65.194,164 64.258,162.915 64.437,161.706L52.567,159.944ZM100,28C113.878,28 125.492,37.755 128.334,50.787L140.059,48.23C136.04,29.802 119.639,16 100,16V28ZM128.334,50.787C128.769,52.783 129,54.861 129,57H141C141,53.996 140.676,51.061 140.059,48.23L128.334,50.787ZM100,98C122.644,98 141,79.644 141,57H129C129,73.016 116.016,86 100,86V98ZM56.527,16C50.442,16 45.276,20.456 44.382,26.475L56.252,28.237C56.272,28.101 56.389,28 56.527,28V16Z" id="path_0"/></svg>
